usr/share/icons/biglinux-icons-material/scalable/apps/ubiquity-kde.svg

<svg xmlns="http://www.w3.org/2000/svg" xml:space="preserve" width="24" height="24"><defs><radialGradient id="a" cx="0" cy="0" r="1" fx="0" fy="0" gradientTransform="matrix(0 16.5 -16.5 0 9 .724)" gradientUnits="userSpaceOnUse" spreadMethod="pad"><stop offset="0" style="stop-opacity:1;stop-color:#90d2d3"/><stop offset="1" style="stop-opacity:1;stop-color:#20a5a7"/></radialGradient><radialGradient id="b" cx="0" cy="0" r="1" fx="0" fy="0" gradientTransform="matrix(0 16.5 -16.5 0 9 .724)" gradientUnits="userSpaceOnUse" spreadMethod="pad"><stop offset="0" style="stop-opacity:1;stop-color:#a3dadb"/><stop offset="1" style="stop-opacity:1;stop-color:#90d3d4"/></radialGradient><clipPath id="c" clipPathUnits="userSpaceOnUse"><path d="M0 0h49v49H0Z"/></clipPath></defs><path d="M7.195.809c.09 0 .176-.012.258-.036a24.191 24.191 0 0 1 3.231.008c.976.078 1.921.289 2.836.637 1.519.625 2.558 1.711 3.121 3.254.316.93.507 1.887.566 2.871a21.18 21.18 0 0 1-.086 3.691 8.973 8.973 0 0 1-.672 2.489c-.637 1.382-1.672 2.336-3.101 2.859a11.666 11.666 0 0 1-3.575.621 16 16 0 0 1-4.089-.312c-2.481-.551-4.016-2.067-4.594-4.539a14.287 14.287 0 0 1-.336-3.387c-.027-1.211.101-2.41.387-3.586.609-2.317 2.078-3.75 4.406-4.305A10.613 10.613 0 0 1 7.195.809Z" style="fill:url(#a);fill-rule:evenodd;stroke:none" transform="matrix(1.33333 0 0 1.33333 0 .035)"/><path d="m.953 11.578-.012.02c.043.254.09.504.149.754.578 2.472 2.113 3.988 4.594 4.539a16 16 0 0 0 4.089.312 11.682 11.682 0 0 0 3.575-.621c1.429-.523 2.464-1.477 3.101-2.859.297-.68.492-1.387.613-2.118-.007-.007-.007-.019-.015-.027z" style="fill:url(#b);stroke:none" transform="matrix(1.33333 0 0 1.33333 0 .035)"/><g clip-path="url(#c)" opacity=".5" transform="matrix(1.33333 0 0 1.33333 0 .035)"><path d="M9.891 14.109h2.652c.352 1.012 1.844.754 1.84-.316a.95.95 0 0 0-.949-.949.948.948 0 0 0-.891.633H9.891c.058.316.058.316 0 .632" style="fill:#000;fill-opacity:1;fill-rule:nonzero;stroke:none"/></g><path d="M4.57 12.844a.948.948 0 0 0-.949.949.945.945 0 0 0 1.84.316h2.648c.356 1.008 1.844.754 1.84-.316a.948.948 0 0 0-1.84-.316H5.461a.952.952 0 0 0-.891-.633" style="fill:#20a5a7;fill-opacity:1;fill-rule:nonzero;stroke:none" transform="matrix(1.33333 0 0 1.33333 0 .035)"/><path d="M8.457 3.031v5.426L6.016 6.016l-.813.812L9 10.629l3.801-3.801-.817-.812-2.441 2.441V3.031Z" style="fill:#fcfcfc;fill-opacity:1;fill-rule:nonzero;stroke:none" transform="matrix(1.33333 0 0 1.33333 0 .035)"/></svg>

<?xml version="1.0" encoding="UTF-8" standalone="no"?>
<svg
   width="24"
   height="24"
   version="1.1"
   id="svg58794"
   sodipodi:docname="uos-installtool.svg"
   xml:space="preserve"
   inkscape:version="1.2.2 (b0a8486541, 2022-12-01)"
   inkscape:export-filename="../../../../../../../../../Imagens/Big Icons/uos-installtool.pdf"
   inkscape:export-xdpi="96"
   inkscape:export-ydpi="96"
   xmlns:inkscape="http://www.inkscape.org/namespaces/inkscape"
   xmlns:sodipodi="http://sodipodi.sourceforge.net/DTD/sodipodi-0.dtd"
   xmlns="http://www.w3.org/2000/svg"
   xmlns:svg="http://www.w3.org/2000/svg"><defs
     id="defs58798"><radialGradient
       id="radialGradient60733"
       cx="0"
       cy="0"
       r="1"
       gradientUnits="userSpaceOnUse"
       gradientTransform="matrix(0,22,-22,0,11.999987,0.9648008)"><stop
         stop-color="#D6B1FF"
         id="stop60729"
         offset="0"
         style="stop-color:#a3dadb;stop-opacity:1;" /><stop
         offset="1"
         stop-color="#A75DFA"
         id="stop60731"
         style="stop-color:#90d3d4;stop-opacity:1;" /></radialGradient><radialGradient
       id="paint0_radial_4_408"
       cx="0"
       cy="0"
       r="1"
       gradientUnits="userSpaceOnUse"
       gradientTransform="matrix(0,22,-22,0,11.999987,0.9648008)"><stop
         stop-color="#D6B1FF"
         id="stop58921"
         offset="0"
         style="stop-color:#90d2d3;stop-opacity:1;" /><stop
         offset="1"
         stop-color="#A75DFA"
         id="stop58923"
         style="stop-color:#20a5a7;stop-opacity:1;" /></radialGradient><radialGradient
       fx="0"
       fy="0"
       cx="0"
       cy="0"
       r="1"
       gradientUnits="userSpaceOnUse"
       gradientTransform="matrix(0,16.5,-16.5,0,8.99999,0.723601)"
       spreadMethod="pad"
       id="radialGradient60965"><stop
         style="stop-opacity:1;stop-color:#90d2d3"
         offset="0"
         id="stop60961" /><stop
         style="stop-opacity:1;stop-color:#20a5a7"
         offset="1"
         id="stop60963" /></radialGradient><radialGradient
       fx="0"
       fy="0"
       cx="0"
       cy="0"
       r="1"
       gradientUnits="userSpaceOnUse"
       gradientTransform="matrix(0,16.5,-16.5,0,8.99999,0.723601)"
       spreadMethod="pad"
       id="radialGradient60983"><stop
         style="stop-opacity:1;stop-color:#a3dadb"
         offset="0"
         id="stop60979" /><stop
         style="stop-opacity:1;stop-color:#90d3d4"
         offset="1"
         id="stop60981" /></radialGradient><clipPath
       clipPathUnits="userSpaceOnUse"
       id="clipPath60993"><path
         d="M 0,0 H 49 V 49 H 0 Z"
         id="path60991" /></clipPath><radialGradient
       fx="0"
       fy="0"
       cx="0"
       cy="0"
       r="1"
       gradientUnits="userSpaceOnUse"
       gradientTransform="matrix(0,16.5,-16.5,0,8.99999,0.723601)"
       spreadMethod="pad"
       id="radialGradient60965-4"><stop
         style="stop-opacity:1;stop-color:#90d2d3"
         offset="0"
         id="stop60961-7" /><stop
         style="stop-opacity:1;stop-color:#20a5a7"
         offset="1"
         id="stop60963-4" /></radialGradient><radialGradient
       fx="0"
       fy="0"
       cx="0"
       cy="0"
       r="1"
       gradientUnits="userSpaceOnUse"
       gradientTransform="matrix(0,16.5,-16.5,0,8.99999,0.723601)"
       spreadMethod="pad"
       id="radialGradient60983-4"><stop
         style="stop-opacity:1;stop-color:#a3dadb"
         offset="0"
         id="stop60979-3" /><stop
         style="stop-opacity:1;stop-color:#90d3d4"
         offset="1"
         id="stop60981-0" /></radialGradient><clipPath
       clipPathUnits="userSpaceOnUse"
       id="clipPath60993-7"><path
         d="M 0,0 H 49 V 49 H 0 Z"
         id="path60991-8" /></clipPath></defs><sodipodi:namedview
     id="namedview58796"
     pagecolor="#ffffff"
     bordercolor="#000000"
     borderopacity="0.25"
     inkscape:showpageshadow="2"
     inkscape:pageopacity="0.0"
     inkscape:pagecheckerboard="0"
     inkscape:deskcolor="#d1d1d1"
     showgrid="false"
     inkscape:zoom="4.8282135"
     inkscape:cx="-3.3138551"
     inkscape:cy="51.364754"
     inkscape:window-width="2560"
     inkscape:window-height="998"
     inkscape:window-x="1680"
     inkscape:window-y="0"
     inkscape:window-maximized="1"
     inkscape:current-layer="svg58794" /><g
     id="g60949"
     transform="matrix(1.3333333,0,0,1.3333333,-4.5225532e-4,0.03511966)"><g
       id="g60951"><g
         id="g60953"><g
           id="g60959"><path
             d="m 7.195,0.809 c 0.09,0 0.176,-0.012 0.258,-0.036 1.078,-0.07 2.156,-0.066 3.231,0.008 0.976,0.078 1.921,0.289 2.836,0.637 1.519,0.625 2.558,1.711 3.121,3.254 0.316,0.93 0.507,1.887 0.566,2.871 0.078,1.23 0.051,2.461 -0.086,3.691 -0.105,0.864 -0.328,1.692 -0.672,2.489 -0.637,1.382 -1.672,2.336 -3.101,2.859 C 12.191,16.977 11,17.18 9.773,17.203 8.398,17.273 7.035,17.172 5.684,16.891 3.203,16.34 1.668,14.824 1.09,12.352 0.844,11.234 0.73,10.109 0.754,8.965 0.727,7.754 0.855,6.555 1.141,5.379 1.75,3.062 3.219,1.629 5.547,1.074 6.09,0.941 6.641,0.855 7.195,0.809 Z"
             style="fill:url(#radialGradient60965-4);fill-rule:evenodd;stroke:none"
             id="path60967" /></g></g></g><g
       id="g60969"><g
         id="g60971"><g
           id="g60977"><path
             d="m 0.953,11.578 c -0.004,0.008 -0.008,0.012 -0.012,0.02 0.043,0.254 0.09,0.504 0.149,0.754 0.578,2.472 2.113,3.988 4.594,4.539 1.351,0.281 2.714,0.382 4.089,0.312 1.227,-0.023 2.415,-0.226 3.575,-0.621 1.429,-0.523 2.464,-1.477 3.101,-2.859 0.297,-0.68 0.492,-1.387 0.613,-2.118 -0.007,-0.007 -0.007,-0.019 -0.015,-0.027 z"
             style="fill:url(#radialGradient60983-4);stroke:none"
             id="path60985" /></g></g></g><g
       id="g60987"><g
         id="g60989" /><g
         id="g61001"><g
           clip-path="url(#clipPath60993-7)"
           opacity="0.5"
           id="g60999"><g
             id="g60997"><path
               d="m 9.891,14.109 h 2.652 c 0.352,1.012 1.844,0.754 1.84,-0.316 0,-0.523 -0.426,-0.949 -0.949,-0.949 -0.403,0.004 -0.758,0.254 -0.891,0.633 H 9.891 c 0.058,0.316 0.058,0.316 0,0.632"
               style="fill:#000000;fill-opacity:1;fill-rule:nonzero;stroke:none"
               id="path60995" /></g></g></g></g><path
       d="m 4.57,12.844 c -0.527,0 -0.949,0.426 -0.949,0.949 0,0.527 0.422,0.949 0.949,0.949 0.399,0 0.758,-0.254 0.891,-0.633 h 2.648 c 0.356,1.008 1.844,0.754 1.84,-0.316 C 9.949,13.27 9.527,12.844 9,12.844 8.602,12.848 8.242,13.098 8.109,13.477 H 5.461 C 5.328,13.098 4.969,12.848 4.57,12.844"
       style="fill:#20a5a7;fill-opacity:1;fill-rule:nonzero;stroke:none"
       id="path61003" /><path
       d="M 8.457,3.031 V 8.457 L 6.016,6.016 5.203,6.828 9,10.629 12.801,6.828 11.984,6.016 9.543,8.457 V 3.031 Z"
       style="fill:#fcfcfc;fill-opacity:1;fill-rule:nonzero;stroke:none"
       id="path61005" /></g></svg>
